!!!COM: Music21
!!!OTL: Pasacorredoiras
!!!OMV: pezas_pasacorredoiras_pasacorredoiras-5_pasacorredoiras.musicxml
**kern
*part1
*staff1
*I"Bagpipes
*I'Bag
*clefG^2
*k[]
*M2/4
=1
!LO:TX:a:t=Andante
*MM96
!LO:TX:a:t=[quarter]=96
4.r
16eeLL
16ffJJ
=||
8ggL
16cccL
16bbJJ
16dddLL
16ccc
16bb
16aaJJ
=
16aaLL
16gg
16ff
16aaJJ
8ggL
16ggL
16ffJJ
=
16aaLL
16gg
16ff
16eeJJ
8ddL
16ffL
16eeJJ
=
16ggLL
16ff
16ee
16ddJJ
8ccL
16eeL
16ffJJ
=
8ggL
16cccL
16bbJJ
16dddLL
16ccc
16bb
16aaJJ
!!linebreak:original
=
16aaLL
16gg
16ff
16aaJJ
8ggL
16ggL
16aaJJ
=
16bbLL
16ccc
16ddd
16cccJJ
16bbLL
16gg
16aa
16bbJJ
=
4.ccc
16eeLL
16ffJJ
=||
8ggL
16cccL
16bbJJ
16dddLL
16ccc
16bb
16aaJJ
=
16aaLL
16gg
16ff
16aaJJ
8ggL
16ggL
16ffJJ
=
16aaLL
16gg
16ff
16eeJJ
8ddL
16ffL
16eeJJ
!!linebreak:original
=
16ggLL
16ff
16ee
16ddJJ
8ccL
16eeL
16ffJJ
=
8ggL
16cccL
16bbJJ
16dddLL
16ccc
16bb
16aaJJ
!!linebreak:original
=
16aaLL
16gg
16ff
16aaJJ
8ggL
16ggL
16aaJJ
=
16bbLL
16ccc
16ddd
16cccJJ
16bbLL
16gg
16aa
16bbJJ
=
4.ccc
16ffLL
16aaJJ
=||
4ff
4aa
=
4ee
4gg
=
4dd
4ff
=
16eeLL
16dd
16ee
16ffJJ
8ggL
8eeJ
=
4ff
4aa
=
4ee
4gg
!!linebreak:original
=
16ddLL
16ff
16dd
16ffJJ
16ddLL
16ff
16ee
16ddJJ
=
2cc
=||
4ff
4aa
=
4ee
4gg
=
4dd
4ff
=
16eeLL
16dd
16ee
16ffJJ
8ggL
8eeJ
=
4ff
4aa
=
4ee
4gg
!!linebreak:original
=
16ddLL
16ff
16dd
16ffJJ
16ddLL
16ff
16ee
16ddJJ
=
4.cc
16eeLL
16ffJJ
==
*-
!!!system-decoration: s1,s2
